X: 134
T: Ye ken what, a Reel
C: attr. John French (1753-1803)
R: reel
B: "John French Collection", John French ed. p.13 #4
S: http://www.heallan.com/french.asp
Z: 2012 John Chambers <jc:trillian.mit.edu>
M: C
L: 1/8
K: D
c | d2(AF) {F}d2(AF) | (D/E/F/G/ A)F GE-Ec | d2AF (D/E/F/G/ A)F | Bgec dD-D :|
f | defg abaf | gefd ge-ef | defg abaf | gefd Ad-df |
    dcBA BAGF | GEFD CE-EG | FDFA dcBA | Bgec dD-D |]

%%sep 2 1 500
%%sep 1 1 500

